assets/bottle.svg

<svg id="Layer_1" data-name="Layer 1" xmlns="http://www.w3.org/2000/svg" viewBox="0 0 89.93269 224.44661"><defs><style>.cls-1{fill:#87163b;opacity:0.43;}.cls-2{fill:#c9c9c9;}.cls-3{fill:#181818;}.cls-4{fill:#6d6c6d;}.cls-5{fill:#898989;}.cls-6{fill:#4c4c4d;}</style></defs><ellipse class="cls-1" cx="37.08501" cy="216.01679" rx="32.97648" ry="7.179"/><path class="cls-2" d="M26.83072,54.12671v158.719s5.2007,2.26682,9.3093,0V52.18332Z"/><path class="cls-1" d="M74.17,148.6266v66.29c0,2.32-3.23,4.45-8.6,6.1-6.8,2.1-17.03,3.43-28.48,3.43s-21.69-1.33-28.49-3.43c-5.37-1.65-8.6-3.78-8.6-6.1v-66.29C0,93.97,3.33013,69.78063,4.961,61.21151a7.24956,7.24956,0,0,1,4.38624-5.35015L12.78,54.45662H61.39l3.43277,1.40475A7.24955,7.24955,0,0,1,69.209,61.2115C70.83985,69.78061,74.17,93.97,74.17,148.6266Z"/><path class="cls-3" d="M68.25863,35.03978,59.2753,36.20232,15.52123,37.25919,5.26968,36.83644,6.71425,49.53905A5.26978,5.26978,0,0,0,11.984,54.80883h49.8826a5.26978,5.26978,0,0,0,5.26978-5.26978Z"/><path class="cls-4" d="M5.26968,36.83644l6.394-7.081,47.3474-1.16255S77.82322,24.25979,87.335,18.86979c0,0,3.0649,3.27628,2.53647,5.28431L68.25863,35.03978,59.2753,36.20232,15.52123,37.25919Z"/><polygon class="cls-5" points="30.899 18.87 16.525 22.78 12.78 29.728 21.114 29.523 21.839 27.492 32.857 22.522 30.899 18.87"/><polygon class="cls-6" points="32.327 22.761 34.968 29.183 21.114 29.523 21.839 27.492 32.327 22.761"/><polygon class="cls-5" points="66.427 26.671 63.964 22.761 34.508 28.064 34.968 29.183 59.011 28.593 66.427 26.671"/><path class="cls-2" d="M16.98493,22.65512,10.96916,4.46626S17.68947-.84041,22.81832.11512l7.51405,18.90872"/></svg>

<svg id="Layer_1" data-name="Layer 1" xmlns="http://www.w3.org/2000/svg" viewBox="0 0 89.93 224.45"><defs><style>.cls-1{fill:#87163b;opacity:0.43;}.cls-2{fill:#c9c9c9;}.cls-3{fill:#181818;}.cls-4{fill:#6d6c6d;}.cls-5{fill:#898989;}.cls-6{fill:#4c4c4d;}.cls-7{fill:#fcc28a;}</style></defs><ellipse class="cls-1" cx="37.09" cy="216.02" rx="32.98" ry="7.18"/><path class="cls-2" d="M26.83,54.13V212.85s5.2,2.26,9.31,0V52.18Z"/><path class="cls-1" d="M74.17,148.63v66.29c0,2.32-3.23,4.45-8.6,6.1-6.8,2.1-17,3.43-28.48,3.43S15.4,223.12,8.6,221c-5.37-1.65-8.6-3.78-8.6-6.1V148.63C0,94,3.33,69.78,5,61.21a7.25,7.25,0,0,1,4.39-5.35l3.43-1.4H61.39l3.43,1.4a7.25,7.25,0,0,1,4.39,5.35C70.84,69.78,74.17,94,74.17,148.63Z"/><path class="cls-3" d="M68.26,35l-9,1.16L15.52,37.26,5.27,36.84l1.44,12.7A5.27,5.27,0,0,0,12,54.81H61.87a5.27,5.27,0,0,0,5.27-5.27Z"/><path class="cls-4" d="M5.27,36.84l6.39-7.08L59,28.59s18.81-4.33,28.32-9.72c0,0,3.07,3.28,2.54,5.28L68.26,35l-9,1.16L15.52,37.26Z"/><polygon class="cls-5" points="30.9 18.87 16.52 22.78 12.78 29.73 21.11 29.52 21.84 27.49 32.86 22.52 30.9 18.87"/><polygon class="cls-6" points="32.33 22.76 34.97 29.18 21.11 29.52 21.84 27.49 32.33 22.76"/><polygon class="cls-5" points="66.43 26.67 63.96 22.76 34.51 28.06 34.97 29.18 59.01 28.59 66.43 26.67"/><path class="cls-2" d="M17,22.66,11,4.47S17.69-.84,22.82.12L30.33,19"/><path class="cls-7" d="M21.39,210.83c-.81.06-1,.16-1.52,1.21-.37.77-2.25,4.69-2.92,6.14l-.4,0c-.59-2-1.46-4.83-2-6.64-.28-.91-.48-1-1.21-1.15l0-.34,3,.18v.34c-.9,0-1,.18-.81.63.25.9,1,3.33,1.62,5.36.73-1.51,1.63-3.41,2.28-4.89.3-.68.17-.79-.81-1l0-.34,2.76.16Z"/><path class="cls-7" d="M28.31,212.68a4.93,4.93,0,0,0-.34-1c-.18-.33-.3-.42-1-.44l-1.2,0L25.59,217c0,.93.06,1.07,1.19,1.18v.34l-3.49-.13v-.34c1.12,0,1.22-.15,1.26-1.09l.22-5.84-1.1-.05c-.65,0-.85,0-1.07.4a5.55,5.55,0,0,0-.43.95h-.36c.1-.73.2-1.48.26-2.15h.28c.17.29.3.29.64.3l4.74.18a.61.61,0,0,0,.63-.26h.28c0,.57,0,1.43,0,2.13Z"/><path class="cls-7" d="M40.33,211.05c-1,.11-1.08.17-1.07,1.18l.09,4.81c0,1,.13,1,1.11,1.13v.34l-3.21.06v-.34c1-.14,1.09-.16,1.07-1.17l0-2.4-4.11.08,0,2.4c0,1,.11,1,1.1,1.13v.33l-3.21.06v-.33c1-.13,1.07-.17,1.06-1.17l-.09-4.81c0-1-.13-1.07-1.1-1.15v-.33l3.2-.06v.33c-1,.1-1.08.19-1.06,1.19l0,1.9,4.1-.07,0-1.91c0-1-.15-1.08-1.11-1.14v-.34l3.22-.06Z"/><path class="cls-7" d="M45.88,218.2l0-.34c.77-.14.86-.27.66-.71s-.46-1.05-.75-1.78l-2.59.15c-.16.55-.31,1-.45,1.53-.21.8,0,.88,1,.94l0,.34-2.77.16,0-.33c.75-.14.94-.24,1.29-1.34l2.1-6.44.38-.09c.88,2,1.84,4.21,2.72,6.24.45,1,.56,1.11,1.41,1.15l0,.34Zm-1.59-6.31-1,3.13,2.24-.13Z"/><path class="cls-7" d="M56.17,215.38a13.43,13.43,0,0,1-.48,1.86,10.75,10.75,0,0,1-2.15.5c-2.86.28-4.5-1.47-4.7-3.56-.24-2.44,1.45-4.3,4.12-4.56a12.43,12.43,0,0,1,2.28,0c.1.53.26,1.24.41,1.83l-.36.12c-.32-.78-.65-1.24-1.28-1.43a3.46,3.46,0,0,0-1.28-.11c-2,.2-2.87,1.75-2.67,3.72.22,2.31,1.56,3.67,3.49,3.48,1.22-.12,1.76-.73,2.25-2Z"/><path class="cls-7" d="M56.42,209.42l3.17-.44,0,.34c-.92.21-1.07.31-.92,1.37l.28,2a1.66,1.66,0,0,0,.78-.66c.58-.72,1.26-1.64,1.72-2.33.3-.46.25-.61-.27-.61h-.34l0-.33,2.89-.4.05.34A2.55,2.55,0,0,0,61.92,210c-.31.39-1.12,1.42-1.77,2.28,1.05.94,2.58,2.28,3.28,2.85a1.9,1.9,0,0,0,1.62.63l0,.33-1.9.26c-1.06-.91-2.18-1.93-3.43-3a.74.74,0,0,0-.72-.25l.31,2.26c.15,1,.26,1.1,1.26,1l0,.33-3.18.44,0-.34c1-.21,1.05-.31.9-1.34l-.64-4.64c-.14-1.07-.24-1.14-1.23-1.08Z"/><path class="cls-7" d="M68.93,209.36c-.33-.75-.79-1.46-1.9-1.28a1.2,1.2,0,0,0-1,1.5c.14.82.73,1.14,1.8,1.49,1.54.5,2.24.94,2.43,2.07A2.39,2.39,0,0,1,68,215.76a5,5,0,0,1-1.88-.09,17.49,17.49,0,0,1-.61-1.72l.35-.16a2.21,2.21,0,0,0,2.29,1.5,1.33,1.33,0,0,0,1.15-1.59c-.15-.92-.7-1.2-1.84-1.6-1.35-.47-2.14-.92-2.32-2a2.2,2.2,0,0,1,2.1-2.45,8.26,8.26,0,0,1,1.6,0c.12.42.24.89.46,1.64Z"/></svg>
